X: 1
T: Russian Sher #3 (Hotzinyu)   [Dm,F]
S: 2019 NEFFA Klezmer Jam set
N: "II-8" in box at upper left, before title
N: "modified Kammen versi[on]" at upper right
Z: 2019 John Chambers <jc:trillian.mit.edu>
P: (AABCCB)AA
M: 2/4
L: 1/16
K: Dm
"^A"|:\
"Dm"D2D2 D4 | F2F2 F4 | "A7"E2D2 ^C2D2 | E8 |\
"A7"E2E2 E4 | G2G2 G4 | "Dm"F2E2D2F2 | A8 |\
"Gm"z2BA G2A2 | B2A2 G4 |
"Dm"z2D2 E2F2 | (3A2G2F2 (3F2E2D2 |\
F2 F4 F2 | "A7"(3F2E2D2 (3^C2D2E2 | "Dm"D8 |\
[1 "A7"A8 :|[2 z2 |]\
y|["Coda" "Dm"D8- | !fine!D2 |]
!segno!y\
"^B"|: "A7"A,2 D2E2 |\
"Dm"F2E2 D4 | z2E2 F2G2 |\
F2E2D4 | z2A2B2A2 |\
"Gm"G2F2E4 | "A7"z2E2 F2G2 |\
"Dm"(3F2E2D2 A4 | (3A2G2F2 (3F2E2D2 |\
"Gm"B2A2G4 | "A7"z2E2 F2G2 |
"Dm"A2G2 F4 | z2A,2 D2E2 |\
"Dm"F2F4F2 | (3F2E2D2 "A7"^C2D2E2 |\
[1 "Dm"D8 | "A7"z2 :|\
[2 "Dm"D4 "Db7"_D4 | "C7"C4 c4 |]
"^C"|:\
"F"Ac=Bc dcBc | f2c2 A2F2 | "C7"G3A cBAG |1,3 "F"=Bdc6 :|2 "F"F4 "C7"c4 :|4 "F"F2 !segno!y|]

%%sep 1 1 500
%%sep 1 1 500

